blockchains/ethereum/assets/0x0f51bb10119727a7e5eA3538074fb341F56B09Ad/logo.svg

<svg fill="none" height="250" viewBox="0 0 250 250" width="250" xmlns="http://www.w3.org/2000/svg" xmlns:xlink="http://www.w3.org/1999/xlink"><linearGradient id="a"><stop offset="0" stop-color="#64c7f0"/><stop offset="1" stop-color="#4a9cd6"/></linearGradient><linearGradient id="b" gradientUnits="userSpaceOnUse" x1="30.4679" x2="204.622" xlink:href="#a" y1="173.01" y2="36.5163"/><linearGradient id="c" gradientUnits="userSpaceOnUse" x1="51.0922" x2="232.505" xlink:href="#a" y1="197.91" y2="60.9971"/><linearGradient id="d" gradientUnits="userSpaceOnUse" x1="66.4172" x2="242.342" xlink:href="#a" y1="218.466" y2="84.8995"/><clipPath id="e"><path d="m0 0h250v250h-250z"/></clipPath><g clip-path="url(#e)"><path clip-rule="evenodd" d="m250 125c0 69.036-55.964 125-125 125-69.0359 0-125-55.964-125-125 0-69.0359 55.9641-125 125-125 69.036 0 125 55.9641 125 125z" fill="#fff" fill-rule="evenodd"/><path d="m41.6665 187.371 60.4185-111.7744 53.195-23.5107-60.4189 111.7741z" fill="url(#b)"/><path d="m101.955 161.761 45.839-84.9798 26.006 25.6118-45.182 85.112z" fill="url(#c)"/><path d="m178.922 105.016 33.887 12.346-16.944 30.997-41.111 1.445z" fill="url(#d)"/></g></svg>

<svg width="250" height="250" viewBox="0 0 250 250" fill="none" xmlns="http://www.w3.org/2000/svg">
<g clip-path="url(#clip0_50_11905)">
<path fill-rule="evenodd" clip-rule="evenodd" d="M250 125C250 194.036 194.036 250 125 250C55.9641 250 0 194.036 0 125C0 55.9641 55.9641 0 125 0C194.036 0 250 55.9641 250 125Z" fill="white"/>
<path d="M41.6665 187.371L102.085 75.5966L155.28 52.0859L94.8611 163.86L41.6665 187.371Z" fill="url(#paint0_linear_50_11905)"/>
<path d="M101.955 161.761L147.794 76.7812L173.8 102.393L128.618 187.505L101.955 161.761Z" fill="url(#paint1_linear_50_11905)"/>
<path d="M178.922 105.016L212.809 117.362L195.865 148.359L154.754 149.804L178.922 105.016Z" fill="url(#paint2_linear_50_11905)"/>
</g>
<defs>
<linearGradient id="paint0_linear_50_11905" x1="30.4679" y1="173.01" x2="204.622" y2="36.5163" gradientUnits="userSpaceOnUse">
<stop stop-color="#64C7F0"/>
<stop offset="1" stop-color="#4A9CD6"/>
</linearGradient>
<linearGradient id="paint1_linear_50_11905" x1="51.0922" y1="197.91" x2="232.505" y2="60.9971" gradientUnits="userSpaceOnUse">
<stop stop-color="#64C7F0"/>
<stop offset="1" stop-color="#4A9CD6"/>
</linearGradient>
<linearGradient id="paint2_linear_50_11905" x1="66.4172" y1="218.466" x2="242.342" y2="84.8995" gradientUnits="userSpaceOnUse">
<stop stop-color="#64C7F0"/>
<stop offset="1" stop-color="#4A9CD6"/>
</linearGradient>
<clipPath id="clip0_50_11905">
<rect width="250" height="250" fill="white"/>
</clipPath>
</defs>
</svg>
